polaris-icons/icons/new-icons/TransactionFeeDollarMajor.svg

<svg width="20" height="20" viewBox="0 0 20 20" fill="none" xmlns="http://www.w3.org/2000/svg">
<path fill-rule="evenodd" clip-rule="evenodd" d="M4 5.25C4 4.00736 5.00736 3 6.25 3C7.22966 3 8.06309 3.62611 8.37197 4.5H11.628C11.9369 3.62611 12.7703 3 13.75 3C14.9926 3 16 4.00736 16 5.25C16 6.49264 14.9926 7.5 13.75 7.5C12.7703 7.5 11.9369 6.87389 11.628 6H8.75V11.25C8.75 11.9404 9.30964 12.5 10 12.5H10.25C10.6642 12.5 11 12.8358 11 13.25C11 13.6642 10.6642 14 10.25 14H10C8.48122 14 7.25 12.7688 7.25 11.25V7.26612C6.94876 7.41582 6.60921 7.5 6.25 7.5C5.00736 7.5 4 6.49264 4 5.25ZM6.25 4.5C5.83579 4.5 5.5 4.83579 5.5 5.25C5.5 5.66421 5.83579 6 6.25 6C6.66421 6 7 5.66421 7 5.25C7 4.83579 6.66421 4.5 6.25 4.5ZM13.75 4.5C13.3358 4.5 13 4.83579 13 5.25C13 5.66421 13.3358 6 13.75 6C14.1642 6 14.5 5.66421 14.5 5.25C14.5 4.83579 14.1642 4.5 13.75 4.5Z" fill="#4A4A4A"/>
<path d="M13.25 10.1067C12.5218 10.3641 12 11.0586 12 11.875C12 12.9105 12.8395 13.75 13.875 13.75H14.625C14.8321 13.75 15 13.9179 15 14.125C15 14.3321 14.8321 14.5 14.625 14.5H12.75C12.3358 14.5 12 14.8358 12 15.25C12 15.6642 12.3358 16 12.75 16H13.25V16.25C13.25 16.6642 13.5858 17 14 17C14.4142 17 14.75 16.6642 14.75 16.25V15.9959C15.7273 15.9316 16.5 15.1185 16.5 14.125C16.5 13.0895 15.6605 12.25 14.625 12.25H13.875C13.6679 12.25 13.5 12.0821 13.5 11.875C13.5 11.6679 13.6679 11.5 13.875 11.5H15.75C16.1642 11.5 16.5 11.1642 16.5 10.75C16.5 10.3358 16.1642 10 15.75 10H14.75V9.75C14.75 9.33579 14.4142 9 14 9C13.5858 9 13.25 9.33579 13.25 9.75V10.1067Z" fill="#4A4A4A"/>
</svg>

<svg viewBox="0 0 20 20" xmlns="http://www.w3.org/2000/svg"><path fill-rule="evenodd" d="M4 5.25a2.25 2.25 0 0 1 4.372-.75h3.256a2.251 2.251 0 1 1 0 1.5h-2.878v5.25c0 .69.56 1.25 1.25 1.25h.25a.75.75 0 0 1 0 1.5h-.25a2.75 2.75 0 0 1-2.75-2.75v-3.984a2.25 2.25 0 0 1-3.25-2.016Zm2.25-.75a.75.75 0 1 0 0 1.5.75.75 0 0 0 0-1.5Zm7.5 0a.75.75 0 1 0 0 1.5.75.75 0 0 0 0-1.5Z" fill="#5C5F62"/><path d="M13.25 10.107a1.876 1.876 0 0 0 .625 3.643h.75a.375.375 0 0 1 0 .75h-1.875a.75.75 0 0 0 0 1.5h.5v.25a.75.75 0 0 0 1.5 0v-.254a1.875 1.875 0 0 0-.125-3.746h-.75a.375.375 0 0 1 0-.75h1.875a.75.75 0 0 0 0-1.5h-1v-.25a.75.75 0 0 0-1.5 0v.357Z" fill="#5C5F62"/></svg>
